X:1
T:Title
%%score ( 1 2 ) { 3 | 4 }
L:1/8
Q:1/4=114
M:4/4
K:Bb
V:1 treble nm="Grand Piano, Unnamed-000"
V:2 treble 
V:3 bass nm="Choir Pad, Festal Song, SM"
V:4 bass 
V:1
 F2 B2 F2 D2 | [DF]2 [EG]6 | z2 .G2 z4 | [=EG]2 F6 | [Fc]2 [Fd]2 cd [Ee]2 | %5
w: By~William~Howard~Walter,~1872 * * *|||||
 [Fd]2 [Gc]2 [GB]2 [FA]2 | F2 E-[EA] [FB]2 [FB]2 | [EA]2 [DB]6- | [DB]2 z2 z4 |] %9
w: ||||
V:2
 x8 | x8 | [DF]2 E-[EA] [FB]2 [FA]2 | x8 | z4 F2 z2 | x8 | z2 .G2 z4 | x8 | x8 |] %9
V:3
 F,2 B,2 F,2 D,2 | B,2 B,6 | B,2 B,[K:treble]C D2 C2 | B,2 A,6 | A,2 B,2 C2 B,2 | %5
 B,2[K:treble] E2 D2 C2 | B,2 B,C D2 C2 | C2 B,6- | B,2 z2 z4 |] %9
V:4
 z8 | B,,2 E,6 | B,,2 E,2 B,,2 C,2 | C,2 F,6 | F,2 z2 A,2 G,2 | F,2 E,2 =E,2 F,2 | %6
 D,2 E,2 D,E, F,2 | F,2 B,,6- | B,,2 z2 z4 |] %9

